src/assets/outline/CpuSetting.svg

<svg width="24" height="24" viewBox="0 0 24 24"  xmlns="http://www.w3.org/2000/svg">
<path d="M9.6 20.75C5.21 20.75 3.25 18.79 3.25 14.4V9.6C3.25 5.21 5.21 3.25 9.6 3.25H14.4C18.79 3.25 20.75 5.21 20.75 9.6C20.75 10.01 20.41 10.35 20 10.35C19.59 10.35 19.25 10.01 19.25 9.6C19.25 6.02 17.98 4.75 14.4 4.75H9.6C6.02 4.75 4.75 6.02 4.75 9.6V14.4C4.75 17.98 6.02 19.25 9.6 19.25C10.01 19.25 10.35 19.59 10.35 20C10.35 20.41 10.01 20.75 9.6 20.75Z" />
<path d="M7.99023 17.1C7.83023 17.1 7.66023 17.05 7.52023 16.94C6.65023 16.25 6.24023 15.15 6.24023 13.5V10.5C6.24023 7.6 7.59023 6.25 10.4902 6.25H13.4902C15.1402 6.25 16.2302 6.66 16.9302 7.53C17.1902 7.85 17.1302 8.33 16.8102 8.58C16.4902 8.84 16.0102 8.79 15.7602 8.46C15.5202 8.15 15.0202 7.75 13.5002 7.75H10.5002C8.42023 7.75 7.75023 8.42 7.75023 10.5V13.5C7.75023 15.02 8.16023 15.52 8.46023 15.76C8.78023 16.02 8.84023 16.49 8.58023 16.81C8.43023 17 8.21023 17.1 7.99023 17.1Z" />
<path d="M8.00977 4.75C7.58977 4.75 7.25977 4.41 7.25977 4V2C7.25977 1.59 7.59977 1.25 8.00977 1.25C8.41977 1.25 8.75977 1.59 8.75977 2V4C8.75977 4.41 8.41977 4.75 8.00977 4.75Z" />
<path d="M12 4.75C11.59 4.75 11.25 4.41 11.25 4V2C11.25 1.59 11.59 1.25 12 1.25C12.41 1.25 12.75 1.59 12.75 2V4C12.75 4.41 12.41 4.75 12 4.75Z" />
<path d="M16 4.75C15.59 4.75 15.25 4.41 15.25 4V2C15.25 1.59 15.59 1.25 16 1.25C16.41 1.25 16.75 1.59 16.75 2V4C16.75 4.41 16.41 4.75 16 4.75Z" />
<path d="M22 8.75H20C19.59 8.75 19.25 8.41 19.25 8C19.25 7.59 19.59 7.25 20 7.25H22C22.41 7.25 22.75 7.59 22.75 8C22.75 8.41 22.42 8.75 22 8.75Z" />
<path d="M8.00977 22.75C7.59977 22.75 7.25977 22.41 7.25977 22V20C7.25977 19.59 7.59977 19.25 8.00977 19.25C8.41977 19.25 8.75977 19.59 8.75977 20V22C8.75977 22.41 8.41977 22.75 8.00977 22.75Z" />
<path d="M4 8.75H2C1.59 8.75 1.25 8.42 1.25 8C1.25 7.58 1.59 7.25 2 7.25H4C4.41 7.25 4.75 7.59 4.75 8C4.75 8.41 4.42 8.75 4 8.75Z" />
<path d="M4 12.75H2C1.59 12.75 1.25 12.41 1.25 12C1.25 11.59 1.59 11.25 2 11.25H4C4.41 11.25 4.75 11.59 4.75 12C4.75 12.41 4.42 12.75 4 12.75Z" />
<path d="M4 16.75H2C1.59 16.75 1.25 16.41 1.25 16C1.25 15.59 1.59 15.25 2 15.25H4C4.41 15.25 4.75 15.59 4.75 16C4.75 16.41 4.42 16.75 4 16.75Z" />
<path d="M16.7101 19.3402C15.4201 19.3402 14.3701 18.2902 14.3701 17.0002C14.3701 15.7102 15.4201 14.6602 16.7101 14.6602C18.0001 14.6602 19.0501 15.7102 19.0501 17.0002C19.0401 18.2902 18.0001 19.3402 16.7101 19.3402ZM16.7101 16.1602C16.2501 16.1602 15.8701 16.5402 15.8701 17.0002C15.8701 17.4602 16.2501 17.8402 16.7101 17.8402C17.1701 17.8402 17.5501 17.4602 17.5501 17.0002C17.5401 16.5402 17.1701 16.1602 16.7101 16.1602Z" />
<path d="M18.3999 22.7501C17.8399 22.7501 17.2899 22.4601 16.9899 21.9401L16.9199 21.8301C16.8099 21.6401 16.7199 21.5901 16.6999 21.5801C16.6899 21.5801 16.5899 21.6401 16.4799 21.8301L16.4199 21.9301C15.9599 22.7201 14.9499 22.9801 14.1799 22.5201L13.2799 22.0001C12.8699 21.7701 12.5799 21.3901 12.4599 20.9301C12.3399 20.4801 12.3999 20.0001 12.6299 19.6001C12.7399 19.4101 12.7399 19.3001 12.7299 19.2801C12.7199 19.2701 12.6299 19.2201 12.4099 19.2201C11.4399 19.2201 10.6499 18.4301 10.6499 17.4701V16.5401C10.6499 15.5701 11.4399 14.7901 12.3999 14.7901C12.6199 14.7901 12.7099 14.7301 12.7299 14.7201C12.7299 14.7101 12.7299 14.6001 12.6199 14.4101C12.3899 14.0001 12.3199 13.5301 12.4499 13.0801C12.5699 12.6301 12.8599 12.2501 13.2699 12.0101L14.1799 11.4801C14.9399 11.0301 15.9499 11.2901 16.3999 12.0701L16.4599 12.1801C16.5699 12.3701 16.6599 12.4201 16.6799 12.4301C16.6899 12.4301 16.7899 12.3701 16.8999 12.1801L16.9599 12.0801C17.4299 11.2901 18.4299 11.0301 19.1999 11.4901L20.1299 12.0001C20.5399 12.2301 20.8299 12.6101 20.9499 13.0701C21.0699 13.5201 21.0099 14.0001 20.7799 14.4001C20.6699 14.5901 20.6699 14.7001 20.6799 14.7201C20.6899 14.7301 20.7799 14.7801 20.9999 14.7801C21.9699 14.7801 22.7599 15.5701 22.7599 16.5301V17.4601C22.7599 18.4301 21.9699 19.2101 21.0099 19.2101C20.7899 19.2101 20.6999 19.2701 20.6799 19.2801C20.6799 19.2901 20.6799 19.4001 20.7899 19.5901C21.0199 20.0001 21.0899 20.4701 20.9599 20.9201C20.8399 21.3701 20.5499 21.7501 20.1399 21.9901L19.2299 22.5201C18.9599 22.6701 18.6799 22.7501 18.3999 22.7501ZM16.7099 20.0801C17.3099 20.0801 17.8599 20.4401 18.2299 21.0801L18.2899 21.1901C18.3199 21.2401 18.3999 21.2701 18.4599 21.2301L19.3799 20.7001C19.4599 20.6601 19.4899 20.5801 19.4999 20.5401C19.5099 20.5001 19.5199 20.4301 19.4799 20.3501C19.1099 19.7201 19.0799 19.0601 19.3799 18.5401C19.6799 18.0201 20.2699 17.7201 20.9999 17.7201C21.1399 17.7201 21.2599 17.6001 21.2599 17.4701V16.5401C21.2599 16.4001 21.1399 16.2901 21.0099 16.2901C20.2799 16.2901 19.6799 15.9901 19.3899 15.4701C19.0899 14.9501 19.1299 14.2901 19.4899 13.6601C19.5399 13.5801 19.5299 13.5001 19.5099 13.4701C19.4999 13.4301 19.4699 13.3601 19.3899 13.3101L18.4799 12.7801C18.4099 12.7401 18.3299 12.7701 18.2899 12.8301L18.2399 12.9201C17.8699 13.5601 17.3199 13.9201 16.7199 13.9201C16.1199 13.9201 15.5699 13.5601 15.1999 12.9201L15.1399 12.8201C15.1099 12.7601 15.0199 12.7401 14.9699 12.7701L14.0499 13.3001C13.9699 13.3401 13.9399 13.4201 13.9299 13.4601C13.9199 13.5001 13.9099 13.5701 13.9499 13.6501C14.3199 14.2801 14.3499 14.9401 14.0499 15.4601C13.7499 15.9801 13.1599 16.2801 12.4299 16.2801C12.2899 16.2801 12.1699 16.4001 12.1699 16.5301V17.4601C12.1699 17.6001 12.2899 17.7101 12.4199 17.7101C13.1499 17.7101 13.7499 18.0101 14.0399 18.5301C14.3399 19.0501 14.2999 19.7101 13.9399 20.3401C13.8999 20.4201 13.9099 20.4901 13.9199 20.5301C13.9299 20.5701 13.9599 20.6401 14.0399 20.6901L14.9499 21.2201C15.0199 21.2601 15.0999 21.2301 15.1399 21.1701L15.1899 21.0701C15.5499 20.4401 16.1099 20.0801 16.7099 20.0801Z" />
</svg>

<?xml version="1.0" encoding="UTF-8"?>
<svg width="24" height="24" viewBox="0 0 24 24" xmlns="http://www.w3.org/2000/svg">
 <path d="m9.6 20.75c-4.39 0-6.35-1.96-6.35-6.35v-4.8c0-4.39 1.96-6.35 6.35-6.35h4.8c4.39 0 6.35 1.96 6.35 6.35 0 0.41-0.34 0.75-0.75 0.75s-0.75-0.34-0.75-0.75c0-3.58-1.27-4.85-4.85-4.85h-4.8c-3.58 0-4.85 1.27-4.85 4.85v4.8c0 3.58 1.27 4.85 4.85 4.85 0.41 0 0.75 0.34 0.75 0.75s-0.34 0.75-0.75 0.75z"/>
 <path d="m7.9902 17.1c-0.16 0-0.33-0.05-0.47-0.16-0.87-0.69-1.28-1.79-1.28-3.44v-3c0-2.9 1.35-4.25 4.25-4.25h3c1.65 0 2.74 0.41 3.44 1.28 0.26 0.32 0.2 0.8-0.12 1.05-0.32 0.26-0.8 0.21-1.05-0.12-0.24-0.31-0.74-0.71-2.26-0.71h-3c-2.08 0-2.75 0.67-2.75 2.75v3c0 1.52 0.41 2.02 0.71 2.26 0.32 0.26 0.38 0.73 0.12 1.05-0.15 0.19-0.37 0.29-0.59 0.29z"/>
 <path d="m8.0098 4.75c-0.42 0-0.75-0.34-0.75-0.75v-2c0-0.41 0.34-0.75 0.75-0.75s0.75 0.34 0.75 0.75v2c0 0.41-0.34 0.75-0.75 0.75z"/>
 <path d="m12 4.75c-0.41 0-0.75-0.34-0.75-0.75v-2c0-0.41 0.34-0.75 0.75-0.75s0.75 0.34 0.75 0.75v2c0 0.41-0.34 0.75-0.75 0.75z"/>
 <path d="m16 4.75c-0.41 0-0.75-0.34-0.75-0.75v-2c0-0.41 0.34-0.75 0.75-0.75s0.75 0.34 0.75 0.75v2c0 0.41-0.34 0.75-0.75 0.75z"/>
 <path d="m22 8.75h-2c-0.41 0-0.75-0.34-0.75-0.75s0.34-0.75 0.75-0.75h2c0.41 0 0.75 0.34 0.75 0.75s-0.33 0.75-0.75 0.75z"/>
 <path d="m8.0098 22.75c-0.41 0-0.75-0.34-0.75-0.75v-2c0-0.41 0.34-0.75 0.75-0.75s0.75 0.34 0.75 0.75v2c0 0.41-0.34 0.75-0.75 0.75z"/>
 <path d="m4 8.75h-2c-0.41 0-0.75-0.33-0.75-0.75s0.34-0.75 0.75-0.75h2c0.41 0 0.75 0.34 0.75 0.75s-0.33 0.75-0.75 0.75z"/>
 <path d="m4 12.75h-2c-0.41 0-0.75-0.34-0.75-0.75s0.34-0.75 0.75-0.75h2c0.41 0 0.75 0.34 0.75 0.75s-0.33 0.75-0.75 0.75z"/>
 <path d="m4 16.75h-2c-0.41 0-0.75-0.34-0.75-0.75s0.34-0.75 0.75-0.75h2c0.41 0 0.75 0.34 0.75 0.75s-0.33 0.75-0.75 0.75z"/>
 <path d="m16.71 19.34c-1.29 0-2.34-1.05-2.34-2.34s1.05-2.34 2.34-2.34 2.34 1.05 2.34 2.34c-0.01 1.29-1.05 2.34-2.34 2.34zm0-3.18c-0.46 0-0.84 0.38-0.84 0.84s0.38 0.84 0.84 0.84 0.84-0.38 0.84-0.84c-0.01-0.46-0.38-0.84-0.84-0.84z"/>
 <path d="m18.4 22.75c-0.56 0-1.11-0.29-1.41-0.81l-0.07-0.11c-0.11-0.19-0.2-0.24-0.22-0.25-0.01 0-0.11 0.06-0.22 0.25l-0.06 0.1c-0.46 0.79-1.47 1.05-2.24 0.59l-0.9-0.52c-0.41-0.23-0.7-0.61-0.82-1.07-0.12-0.45-0.06-0.93 0.17-1.33 0.11-0.19 0.11-0.3 0.1-0.32-0.01-0.01-0.1-0.06-0.32-0.06-0.97 0-1.76-0.79-1.76-1.75v-0.93c0-0.97 0.79-1.75 1.75-1.75 0.22 0 0.31-0.06 0.33-0.07 0-0.01 0-0.12-0.11-0.31-0.23-0.41-0.3-0.88-0.17-1.33 0.12-0.45 0.41-0.83 0.82-1.07l0.91-0.53c0.76-0.45 1.77-0.19 2.22 0.59l0.06 0.11c0.11 0.19 0.2 0.24 0.22 0.25 0.01 0 0.11-0.06 0.22-0.25l0.06-0.1c0.47-0.79 1.47-1.05 2.24-0.59l0.93 0.51c0.41 0.23 0.7 0.61 0.82 1.07 0.12 0.45 0.06 0.93-0.17 1.33-0.11 0.19-0.11 0.3-0.1 0.32 0.01 0.01 0.1 0.06 0.32 0.06 0.97 0 1.76 0.79 1.76 1.75v0.93c0 0.97-0.79 1.75-1.75 1.75-0.22 0-0.31 0.06-0.33 0.07 0 0.01 0 0.12 0.11 0.31 0.23 0.41 0.3 0.88 0.17 1.33-0.12 0.45-0.41 0.83-0.82 1.07l-0.91 0.53c-0.27 0.15-0.55 0.23-0.83 0.23zm-1.69-2.67c0.6 0 1.15 0.36 1.52 1l0.06 0.11c0.03 0.05 0.11 0.08 0.17 0.04l0.92-0.53c0.08-0.04 0.11-0.12 0.12-0.16s0.02-0.11-0.02-0.19c-0.37-0.63-0.4-1.29-0.1-1.81s0.89-0.82 1.62-0.82c0.14 0 0.26-0.12 0.26-0.25v-0.93c0-0.14-0.12-0.25-0.25-0.25-0.73 0-1.33-0.3-1.62-0.82-0.3-0.52-0.26-1.18 0.1-1.81 0.05-0.08 0.04-0.16 0.02-0.19-0.01-0.04-0.04-0.11-0.12-0.16l-0.91-0.53c-0.07-0.04-0.15-0.01-0.19 0.05l-0.05 0.09c-0.37 0.64-0.92 1-1.52 1s-1.15-0.36-1.52-1l-0.06-0.1c-0.03-0.06-0.12-0.08-0.17-0.05l-0.92 0.53c-0.08 0.04-0.11 0.12-0.12 0.16s-0.02 0.11 0.02 0.19c0.37 0.63 0.4 1.29 0.1 1.81s-0.89 0.82-1.62 0.82c-0.14 0-0.26 0.12-0.26 0.25v0.93c0 0.14 0.12 0.25 0.25 0.25 0.73 0 1.33 0.3 1.62 0.82 0.3 0.52 0.26 1.18-0.1 1.81-0.04 0.08-0.03 0.15-0.02 0.19s0.04 0.11 0.12 0.16l0.91 0.53c0.07 0.04 0.15 0.01 0.19-0.05l0.05-0.1c0.36-0.63 0.92-0.99 1.52-0.99z"/>
</svg>
